X: 1489
T: Girls of Ivory
B: australian traditional tunes wiki
M:6/8
L:1/8
R: Jig
Q: 3/8=100
K:D
V:1 
F2G|"D"AFAd2A|"G"BGB"A"c2B|"D"ABAd2e|f3fef|"A"g2e"D"f2d|"A7"e3e2d|cec BcB|"D"A3F2G|
"D"AFAd2A|"G"BGB"A"c2B|"D"ABAd2e|f3fef|"A"g2e"D"f2d|"A7"e3e2d|cec ABc|"D"d3f2g||
"D"a3"A7"g3|"D"f3f2e|d2fe2d|"G"B3-Bef|"A7"g3"D"f3|"A7"e3e2d|cec BcB|"D"A3f2g|
"D"a3"A7"g3|"D"f3f2e|d2fe2d|"G"B3-Bef|"A7"g3"D"f3|"A7"e3e2d|cec ABc|"D"d3||
% abcbook-tune_id 6342d53aba341e94d330c404


% abcbook-boost 0
% abcbook-tablature 
% abcbook-transpose 
% abcbook-lastupdated 1665324367588
% abcbook-soundfonts 
% abcbook-repeats 1
% NFF Book 2016

